X: 7
T: Down The Broom
R: reel
M: 4/4
L: 1/8
K: Ador
A2AG A2Bd|eged egg2|GEDE ~G3A|BcBA GEDG|AGEG A2Bd|eged egg2|afge d2ef|1 gfgd BAAG:|2 gfgd BAA2||agbg agbg|agbg agef|gebe gebe|gebe gedg|ea~a2 aged|cdef g2fg|afge d2ef|1 gfgd BAA2:|2 gfgd BAAG||


Tune 514	Setting 837

